X:1727
T:Galopp No 13
T:efter Sasser Swensson
R:Galopp
S:Efter Sasser Swensson, Borrby
O:Borrby, Skåne
B:nr 13 ur FMK M87
Z:ABC-transkribering av Åke Persson
M:2/4
L:1/8
Q:1/4=140
K:G
D | GD/G/ BG/B/ | dB/d/ gd | de/d/ cA | ed BD | GD/G/ BG/B/ | dB/d/ gB | dc AF | AGG ::
B | Bc AF | ed BG | Bc AF | AGG ::
[K:C] B | (cB) (cB) | (cB) ce | gf df | ag eG | cB cB | cB ce | gf dB | dcc ::
G | Gc Bc | Ge de | Ad cd | B/G/A/B/ c :|
(:musicend:)


(:music:)
